pro/src/icons/stroke-franc.svg

<svg width="48" height="48" viewBox="0 0 48 48" fill="none" xmlns="http://www.w3.org/2000/svg">
<path id="icon" d="M35.9984 8.31913C35.9726 7.77141 35.6536 7.30817 35.1651 7.11006C35.0416 7.05989 34.8741 7 34.7795 7H15V41.7239C15 41.9091 15.1487 42.2383 15.1503 42.2415C15.3646 42.6899 15.811 42.9803 16.3157 42.999C16.3332 42.9997 16.3504 43 16.3676 43C16.8461 43 17.2833 42.7507 17.5177 42.3412C17.5616 42.2642 17.7049 41.9997 17.7049 41.821V27.5719H33.0305C33.2127 27.5719 33.5365 27.4207 33.5397 27.4191C33.9807 27.2012 34.2663 26.7471 34.2847 26.2343C34.3032 25.7271 34.0552 25.259 33.6377 25.0123C33.5619 24.9676 33.3018 24.822 33.126 24.822H17.7039V9.74993H34.8111C34.9849 9.74993 35.2899 9.59164 35.2931 9.59002C35.7536 9.3495 36.0236 8.86231 35.9981 8.31945L35.9984 8.31913Z" fill="currentColor"/>
</svg>

<svg xmlns="http://www.w3.org/2000/svg" width="48" height="48" fill="none"><path id="icon" fill="currentColor" d="M35.998 8.32a1.35 1.35 0 0 0-.833-1.21c-.123-.05-.29-.11-.386-.11H15v34.724c0 .185.149.514.15.518a1.34 1.34 0 0 0 1.218.758c.478 0 .915-.25 1.15-.659.044-.077.187-.341.187-.52v-14.25H33.03c.182 0 .505-.15.509-.152.44-.218.726-.672.745-1.185a1.35 1.35 0 0 0-.647-1.222c-.076-.044-.336-.19-.512-.19H17.704V9.75H34.81c.174 0 .479-.158.482-.16.46-.24.73-.728.705-1.27"/></svg>
